X: 28397
T: Muirsheen Durkin
R: polka
M: 2/4
K: Gmajor
A|BB AG|Ad d>e|fd cA|BG- GG/A/|
B/c/B/A/ B/A/G|Ad- d>e|fd ef|(g2||
g/)d/e/f/|gf/g/ a>g|fd- d>e|fd c/B/A/c/|BG- G2|
Bc/B/ AG|Ad de|fd c/B/A|G2- G||

